dist/icons/svgs/bell-solid.svg

<svg xmlns="http://www.w3.org/2000/svg" width="24" height="24" fill="currentcolor" class="icon-bell-solid" viewBox="0 0 24 24">
  <path d="M12.0001 2C12.6642 2 13.2501 2.58594 13.2501 3.25V4.03125C16.1017 4.57812 18.2501 7.11719 18.2501 10.125V10.8672C18.2501 12.7031 18.9142 14.5 20.1251 15.8672L20.3986 16.1797C20.7501 16.5703 20.8283 17.0781 20.633 17.5469C20.4376 17.9766 19.9689 18.25 19.5001 18.25H4.50014C3.99233 18.25 3.52358 17.9766 3.32826 17.5469C3.13295 17.0781 3.21108 16.5703 3.56264 16.1797L3.83608 15.8672C5.04701 14.5 5.75014 12.7031 5.75014 10.8672V10.125C5.75014 7.11719 7.89858 4.57812 10.7501 4.03125V3.25C10.7501 2.58594 11.297 2 12.0001 2ZM13.758 21.2969C13.2892 21.7656 12.6642 22 12.0001 22C11.3361 22 10.672 21.7656 10.2033 21.2969C9.73451 20.8281 9.50014 20.1641 9.50014 19.5H12.0001H14.5001C14.5001 20.1641 14.2267 20.8281 13.758 21.2969Z"/>
</svg>

<svg xmlns="http://www.w3.org/2000/svg" width="24" height="24" fill="currentColor" class="icon-bell-solid" viewBox="0 0 24 24">
  <path d="M12 2c.664 0 1.25.586 1.25 1.25v.781c2.852.547 5 3.086 5 6.094v.742c0 1.836.664 3.633 1.875 5l.274.313c.351.39.43.898.234 1.367-.195.43-.664.703-1.133.703h-15c-.508 0-.976-.273-1.172-.703a1.26 1.26 0 0 1 .235-1.367l.273-.313a7.6 7.6 0 0 0 1.914-5v-.742c0-3.008 2.149-5.547 5-6.094V3.25c0-.664.547-1.25 1.25-1.25m1.758 19.297c-.469.469-1.094.703-1.758.703s-1.328-.234-1.797-.703S9.5 20.164 9.5 19.5h5c0 .664-.273 1.328-.742 1.797"/>
</svg>
